X:239
T:Reel 239
M:4/4
K:Dmaj
L:1/8
AG|FDEC A,DD2| (3CDC EC G2GG| (3FED AD BG (3ECC |ECA,B, C2EG|FDED CDEF (3GFE |FDEC A,2C2|B,CDF ECDE| (3FED EC D2|FE|DCDE FEFG|AGAG FDDG|FDFD  (3EFG dc| (3cBA EC EGFE|DEDC DEFG|ABcG ABcA| (3FGA BA GABG|FDEC D2|
